src/img/advisory/blockchain.svg

<svg width="33" height="35" viewBox="0 0 33 35" fill="none" xmlns="http://www.w3.org/2000/svg">
<path d="M23.2721 18.5806C23.3142 18.3015 23.5725 18.1116 23.848 18.1543C24.1235 18.1969 24.3109 18.4585 24.2689 18.7377C23.9723 20.6583 23.0005 22.3522 21.6078 23.5597C20.2323 24.7496 18.4474 25.4706 16.4999 25.4706C14.3267 25.4706 12.362 24.5771 10.9387 23.1352C9.5154 21.6932 8.6335 19.7009 8.6335 17.5012C8.6335 15.3014 9.5154 13.309 10.9387 11.8671C12.362 10.4252 14.3267 9.53367 16.4999 9.53367C18.4474 9.53367 20.2323 10.2527 21.6078 11.4427C23.0005 12.6501 23.9723 14.3441 24.2689 16.2647C24.311 16.5438 24.1235 16.8054 23.848 16.8481C23.5725 16.8907 23.3142 16.7008 23.2721 16.4217C23.0138 14.7492 22.1664 13.2742 20.9516 12.2199C19.754 11.185 18.2007 10.559 16.4999 10.559C14.6079 10.559 12.8938 11.3362 11.6542 12.5921C10.4126 13.848 9.64739 15.5845 9.64739 17.5013C9.64739 19.4181 10.4126 21.1546 11.6542 22.4105C12.8938 23.6664 14.6079 24.4436 16.4999 24.4436C18.2007 24.4436 19.754 23.8176 20.9516 22.7827C22.1663 21.7281 23.0138 20.2532 23.2721 18.5806ZM27.7601 12.6869C27.5726 12.7974 27.3621 12.7974 27.1747 12.6869C25.5122 11.7159 23.8498 10.7449 22.1874 9.77197C22.0325 9.68092 21.9349 9.51234 21.9349 9.3301V4.76389C20.1979 4.00415 18.3384 3.62427 16.4789 3.62817C14.6347 3.63008 12.7886 4.00996 11.0631 4.76389V9.33003C11.0631 9.53354 10.9483 9.70799 10.78 9.79132C9.12708 10.7565 7.47616 11.7217 5.82516 12.6868C5.64723 12.8128 5.42726 12.7973 5.23981 12.6868L3.95231 11.9349C3.18707 13.7063 2.80449 15.6056 2.80449 17.5069C2.80638 19.4024 3.18903 21.2998 3.95231 23.0673L5.28185 22.2902C5.44447 22.1952 5.63961 22.203 5.79068 22.2941L7.10113 23.0616C7.34222 23.2012 7.42447 23.5132 7.28669 23.7574C7.14708 24.0035 6.83905 24.0868 6.59803 23.9473L5.53246 23.3232C4.19334 24.1062 2.85422 24.8892 1.5151 25.6741L5.53246 28.0231L9.54988 25.6741L8.58181 25.1081C8.34079 24.9666 8.25854 24.6527 8.39814 24.4085C8.53782 24.1643 8.84773 24.081 9.08875 24.2224L10.8105 25.2302C10.9674 25.3213 11.063 25.4899 11.063 25.6721V30.2382C12.7962 30.996 14.6481 31.3759 16.4999 31.374C18.3517 31.374 20.2035 30.996 21.9348 30.2382V25.6721C21.9348 25.4705 22.0515 25.2942 22.2199 25.2108C23.8843 24.2379 25.5505 23.265 27.2167 22.2901C27.3794 22.1951 27.5745 22.2029 27.7256 22.294L29.0456 23.0673C29.8127 21.2959 30.1953 19.3945 30.1934 17.4952C30.1934 15.5998 29.8108 13.7043 29.0456 11.9348L27.7601 12.6869ZM26.9605 6.68452L22.9469 4.33753V9.03547C24.286 9.81846 25.6232 10.6015 26.9605 11.3844V6.68452ZM23.4519 3.44989L27.4674 5.80077L31.4848 3.44989L30.6029 2.93432C30.36 2.79282 30.2777 2.48076 30.4155 2.23658C30.5551 1.9924 30.8631 1.909 31.1041 2.04859L32.7397 3.00603C32.9005 3.09708 32.9962 3.26381 32.9962 3.44989L33 9.33003C33 9.53354 32.8833 9.70799 32.7149 9.79132C31.7852 10.334 30.8554 10.8767 29.9257 11.4213C30.7751 13.3477 31.2018 15.4215 31.2018 17.4953C31.2037 19.5729 30.7771 21.6506 29.9257 23.5828C30.865 24.1313 31.8062 24.6798 32.7456 25.2302C32.9024 25.3213 32.9981 25.4899 33 25.6721V31.5523C33 31.7558 32.8833 31.9302 32.7149 32.0136C31.062 32.9788 29.4111 33.9439 27.7601 34.9091C27.565 35.0234 27.3698 35.0254 27.1748 34.9091C25.518 33.9264 23.8499 32.9671 22.1874 31.9942C22.0325 31.9031 21.935 31.7345 21.935 31.5523V31.3469C20.196 32.0466 18.348 32.3955 16.5 32.3974C14.652 32.3974 12.804 32.0466 11.0632 31.3469V31.5523C11.0632 31.7558 10.9484 31.9302 10.78 32.0136C9.12715 32.9788 7.47622 33.9439 5.82523 34.9091C5.63205 35.0234 5.45985 35.037 5.23988 34.9091C3.56979 33.9497 1.91502 32.9671 0.252561 31.9942C0.0976371 31.9031 0 31.7345 0 31.5523V25.6721C0 25.4705 0.116733 25.2942 0.285084 25.2108C1.21483 24.6682 2.14458 24.1255 3.07425 23.5809C2.22291 21.6544 1.79829 19.5806 1.79633 17.5068C1.79633 15.4292 2.22103 13.3515 3.07425 11.4212C2.13499 10.8708 1.19378 10.3223 0.252561 9.7719C0.0976371 9.68085 0 9.51228 0 9.33003V3.44989C0 3.2483 0.116733 3.072 0.285084 2.9886C1.94944 2.01571 3.61568 1.04282 5.28192 0.0678728C5.44454 -0.0270784 5.63967 -0.0192855 5.79075 0.0717693C7.46273 1.05054 9.13282 2.02733 10.8049 3.00412C11.0631 3.15143 11.0631 3.37818 11.0631 3.65729C12.7982 2.95955 14.6367 2.60872 16.4789 2.60681C18.3326 2.60291 20.1863 2.95373 21.9349 3.65729V3.44989C21.9349 3.2483 22.0516 3.072 22.22 2.9886C23.8843 2.01571 25.5506 1.04282 27.2168 0.0678728C27.3794 -0.0270784 27.5746 -0.0192855 27.7257 0.0717693L29.1184 0.887776C29.3595 1.02737 29.4436 1.33936 29.304 1.58354C29.1662 1.8297 28.8583 1.91303 28.6153 1.77351L27.4675 1.10099C26.1283 1.88384 24.7892 2.66683 23.4519 3.44989ZM27.9724 6.68452V11.3844C29.3116 10.6014 30.6487 9.81846 31.986 9.03547V4.33562L27.9724 6.68452ZM26.9605 28.9068L22.9469 26.5578V31.2578C24.286 32.0407 25.6232 32.8237 26.9605 33.6067V28.9068ZM23.45 25.674L27.4674 28.023L31.4848 25.674C30.1438 24.8891 28.8065 24.1061 27.4674 23.3231C26.1283 24.1061 24.7892 24.8891 23.45 25.674ZM5.02551 28.9068L1.012 26.5578V31.2578C2.35112 32.0407 3.68835 32.8237 5.02551 33.6067V28.9068ZM6.03751 28.9068V33.6067C7.3767 32.8237 8.71386 32.0407 10.0511 31.2578V26.5578L6.03751 28.9068ZM5.02551 6.68452L1.012 4.33753V9.03547C2.35112 9.81846 3.68835 10.6015 5.02551 11.3844V6.68452ZM1.51705 3.44989L5.53252 5.79885L9.54799 3.44989C8.20887 2.66683 6.87164 1.88384 5.53252 1.10092C4.19334 1.88384 2.85422 2.66683 1.51705 3.44989ZM6.03751 6.68452V11.3844C7.3767 10.6014 8.71386 9.81846 10.0511 9.03547V4.33753L6.03751 6.68452ZM31.986 26.5578L27.9724 28.9068V33.6067C29.3116 32.8237 30.6487 32.0407 31.986 31.2578V26.5578Z" fill="#19338B"/>
</svg>

<svg xmlns="http://www.w3.org/2000/svg" width="33" height="35" fill="none"><path fill="#19338B" d="M23.27 18.58a.5.5 0 01.58-.43c.27.05.46.3.42.59a8 8 0 01-2.66 4.82 7.78 7.78 0 01-10.67-.42 8 8 0 010-11.27 7.79 7.79 0 0110.67-.43 8 8 0 012.66 4.82.51.51 0 01-.42.59.5.5 0 01-.58-.43 6.97 6.97 0 00-2.32-4.2 6.78 6.78 0 00-9.3.37c-1.24 1.26-2 3-2 4.91 0 1.92.76 3.65 2 4.91a6.79 6.79 0 009.3.37 6.97 6.97 0 002.32-4.2zm4.49-5.9a.56.56 0 01-.59 0c-1.66-.96-3.32-1.94-4.98-2.9a.51.51 0 01-.26-.45V4.76a13.54 13.54 0 00-10.87 0v4.57c0 .2-.11.38-.28.46-1.65.97-3.3 1.93-4.95 2.9-.18.12-.4.1-.59 0l-1.29-.76a14.05 14.05 0 000 11.14l1.33-.78a.5.5 0 01.51 0l1.31.77c.24.14.32.45.19.7a.5.5 0 01-.7.19l-1.06-.63c-1.34.79-2.68 1.57-4.01 2.35l4.01 2.35 4.02-2.35-.97-.56a.52.52 0 01-.18-.7.5.5 0 01.69-.19l1.72 1.01c.16.1.25.26.25.44v4.57a13.54 13.54 0 0010.87 0v-4.57c0-.2.12-.38.29-.46 1.66-.97 3.33-1.95 5-2.92a.5.5 0 01.5 0l1.33.78a14 14 0 000-11.14l-1.29.76zm-.8-6l-4.01-2.34v4.7c1.34.78 2.67 1.56 4.01 2.34v-4.7zm-3.5-3.23l4 2.35 4.02-2.35-.88-.52a.52.52 0 01-.18-.7.5.5 0 01.68-.18l1.64.96c.16.09.26.25.26.44v5.88c0 .2-.12.38-.29.46-.92.54-1.85 1.09-2.78 1.63a15.07 15.07 0 010 12.16c.93.55 1.88 1.1 2.82 1.65.15.1.25.26.25.44v5.88c0 .2-.12.38-.29.46-1.65.97-3.3 1.93-4.95 2.9a.54.54 0 01-.59 0c-1.65-.98-3.32-1.94-4.98-2.92a.51.51 0 01-.26-.44v-.2a14.6 14.6 0 01-10.87 0v.2c0 .2-.11.38-.28.46-1.65.97-3.3 1.93-4.95 2.9-.2.11-.37.13-.59 0-1.67-.96-3.32-1.94-4.99-2.92a.51.51 0 01-.25-.44v-5.88c0-.2.12-.38.29-.46.92-.54 1.85-1.08 2.78-1.63a15.07 15.07 0 010-12.16c-.94-.55-1.88-1.1-2.82-1.65A.51.51 0 010 9.33V3.45c0-.2.12-.38.29-.46 1.66-.97 3.33-1.95 5-2.92a.5.5 0 01.5 0C7.46 1.05 9.13 2.03 10.8 3c.26.15.26.38.26.66a14.55 14.55 0 0110.87 0v-.21c0-.2.12-.38.29-.46 1.66-.97 3.33-1.95 5-2.92a.5.5 0 01.5 0l1.4.82c.24.14.32.45.18.7a.5.5 0 01-.68.18l-1.15-.67c-1.34.78-2.68 1.57-4.02 2.35zm4.51 3.23v4.7c1.34-.78 2.68-1.56 4.02-2.34v-4.7l-4.02 2.34zm-1 22.23l-4.02-2.35v4.7c1.34.78 2.67 1.56 4.01 2.35v-4.7zm-3.52-3.24l4.02 2.35 4.01-2.35c-1.34-.78-2.67-1.56-4.01-2.35-1.34.79-2.68 1.57-4.02 2.35zM5.03 28.91L1 26.56v4.7c1.34.78 2.68 1.56 4.02 2.35v-4.7zm1 0v4.7c1.35-.79 2.68-1.57 4.02-2.35v-4.7L6.04 28.9zm-1-22.23L1 4.34v4.7c1.34.78 2.68 1.56 4.02 2.34v-4.7zM1.52 3.45L5.53 5.8l4.02-2.35C8.2 2.67 6.87 1.88 5.53 1.1c-1.34.78-2.68 1.57-4.01 2.35zm4.52 3.23v4.7c1.34-.78 2.67-1.56 4.01-2.34v-4.7L6.04 6.68zm25.95 19.88l-4.02 2.35v4.7c1.34-.79 2.68-1.57 4.02-2.35v-4.7z"/></svg>
